X:1
T:[ID 2-3b]
T:[ID 2-3b]
T:Bezeichnung standardisiert: Menuett Menuetto In dieser Quelle auch als: Menuet
T:Urheber unbekannt Erstbeleg: 1767 (Datum in der schriftlichen Quelle) Datum in der hier transkribierten schriftlichen Quelle: 1792
C:Urheber unbekannt
C:Erstbeleg: 1767 (Datum in der schriftlichen Quelle)
C:Datum in der hier transkribierten schriftlichen Quelle: 1792
L:1/8
M:3/4
K:A
V:1 treble 
V:1
 e4 cA | d2 B2 z2 | .cA.dB.ec | .f2 .g2 .a2 | e4 cA | d2 B2 z2 | (ce)(ed)(dc) | c2 B2 z2 :: %8
 e2 ee e2 | f2 fe f2 | g2 gf g2 | agab a2 | e4 cA | d2 B2 z2 | (3agf edcB | B2 A2 z2 :| %16
[K:D]"^F" a>gf>aag/f/ | g>fe>ggf/e/ | ff/e/dd/c/Bg | f/e/d/c/ d2 D2 :| %20

